build/logo/WallSolid.svg

<svg xmlns="http://www.w3.org/2000/svg" fill="none" viewBox="0 0 24 24" focusable="false"><path d="M0 0H24V24H0z"/><path fill="#74767B" fill-rule="evenodd" d="M11.3501 4L7 4C5.34326 4 4 5.34326 4 7L4 8.48804L11.3501 8.48804L11.3501 4ZM4 9.78809L4 14.2126L7.64258 14.2126L7.64258 9.78809L4 9.78809ZM4 15.5127L4 16.9888C4 18.6458 5.34326 19.9888 7 19.9888L11.3501 19.9888L11.3501 15.5127L4 15.5127ZM12.6499 19.9888L17.002 19.9888C18.6587 19.9888 20.002 18.6458 20.002 16.9888L20.002 15.5127L12.6499 15.5127L12.6499 19.9888ZM20.002 14.2126L20.002 9.78809L16.3574 9.78809L16.3574 14.2126L20.002 14.2126ZM20.002 8.48804L20.002 7C20.002 5.34326 18.6587 4 17.002 4L12.6499 4L12.6499 8.48804L20.002 8.48804ZM15.0576 9.78809L15.0576 14.2126L8.94238 14.2126L8.94238 9.78809L11.9868 9.78809L15.0576 9.78809Z"/></svg>

<svg xmlns="http://www.w3.org/2000/svg" fill="none" viewBox="0 0 24 24" focusable="false"><path fill="#74767B" fill-rule="evenodd" d="M11.35 4H7C5.34 4 4 5.34 4 7v1.48h7.35zM4 9.78v4.43h3.64V9.78zm0 5.73v1.47c0 1.66 1.34 3 3 3h4.35v-4.47zm8.64 4.47H17c1.65 0 3-1.34 3-3v-1.47h-7.36zM20 14.21V9.78h-3.65v4.43zm0-5.73V7c0-1.66-1.35-3-3-3h-4.36v4.48zm-4.95 1.3v4.43H8.94V9.78h6.11"/></svg>
